svg/emoticon_plus.svg

<svg xmlns="http://www.w3.org/2000/svg" viewBox="0 0 24 24"><path d="M15 18h3v-3h2v3h3v2h-3v3h-2v-3h-3zM12 2c5.5 0 10 4.5 10 10 0 .59-.05 1.16-.15 1.72C21 13.26 20.03 13 19 13c-1.23 0-2.37.37-3.32 1H6.89c.8 2.04 2.78 3.5 5.11 3.5.42 0 .83-.05 1.23-.14a5.97 5.97 0 0 0 .49 4.49c-.56.1-1.13.15-1.72.15-5.5 0-10-4.5-10-10S6.47 2 12 2m3.5 6c-.83 0-1.5.67-1.5 1.5s.67 1.5 1.5 1.5 1.5-.67 1.5-1.5S16.33 8 15.5 8m-7 0C7.67 8 7 8.67 7 9.5S7.67 11 8.5 11s1.5-.67 1.5-1.5S9.33 8 8.5 8"/></svg>

<svg xmlns="http://www.w3.org/2000/svg" id="mdi-emoticon-plus" viewBox="0 0 24 24"><path d="M15 18H18V15H20V18H23V20H20V23H18V20H15V18M12 2C17.5 2 22 6.5 22 12C22 12.59 21.95 13.16 21.85 13.72C21 13.26 20.03 13 19 13C17.77 13 16.63 13.37 15.68 14H6.89C7.69 16.04 9.67 17.5 12 17.5C12.42 17.5 12.83 17.45 13.23 17.36C13.08 17.88 13 18.43 13 19C13 20.03 13.26 21 13.72 21.85C13.16 21.95 12.59 22 12 22C6.5 22 2 17.5 2 12C2 6.5 6.47 2 12 2M15.5 8C14.67 8 14 8.67 14 9.5C14 10.33 14.67 11 15.5 11C16.33 11 17 10.33 17 9.5C17 8.67 16.33 8 15.5 8M8.5 8C7.67 8 7 8.67 7 9.5C7 10.33 7.67 11 8.5 11C9.33 11 10 10.33 10 9.5C10 8.67 9.33 8 8.5 8Z" /></svg>
